X: 4832
T: Boys On The Hilltop, The
R: reel
M: 4/4
K: Adorian
eA~A2 aAAG|=FGGF ~G2EG|DAAG A2Bd|eaed (3cBA BG|
=FA~A2 cA~A2|DGG^F ~G2BG|cEGc dB~B2|eBAG =FAAG||
A2 (3B^cd eaed|=cA^GB def=g|(3aba gd eaed|^cAGE D4|
~a2=gd eaed|=cA^GB def=g|(3aba ^ga ~b3g|(3aba ^ge (3=gag ^fd||

